X:713
T:
S:Ur en gammal handskriven dansbok, tillhörande Gotlands fornsal.
O:Gotland
R:långdans
M:2/4
L:1/8
K:Bb
(f=e) (fd)|B2 B2|(c_e) (Ac)|(Bd) F2|
(f=e)(fd)|B2 B2|(c_e) (Ac)|B2 z2:|
|:F2(FE)|D2D2|(EF) (ED)|C2 C2|
f=e fd|B2 B2 |(ce) (Ac)|B2 z2:|

